icons/between-vertical-start.svg

<svg width="24" height="24" viewBox="0 0 24 24" fill="none" xmlns="http://www.w3.org/2000/svg">
<path d="M3 12.0787L3 18.4213C3 23.1929 10 23.1929 10 18.4213L10 12.0787C10 7.30709 3 7.30709 3 12.0787Z" stroke="black" stroke-width="2" stroke-linecap="round" stroke-linejoin="round"/>
<path d="M14 12.0787L14 18.4213C14 23.1929 21 23.1929 21 18.4213L21 12.0787C21 7.30709 14 7.30709 14 12.0787Z" stroke="black" stroke-width="2" stroke-linecap="round" stroke-linejoin="round"/>
<path d="M8.5 2C10.1261 2.9292 11.0853 4.43188 12 6C12.9147 4.43188 13.8739 2.9292 15.5 2" stroke="black" stroke-width="2" stroke-linecap="round" stroke-linejoin="round"/>
</svg>

<svg xmlns="http://www.w3.org/2000/svg" width="24" height="24" viewBox="0 0 24 24" fill="none" stroke="currentColor" stroke-width="2" stroke-linecap="round" stroke-linejoin="round">
<path d="M3 12.079v6.342c0 4.772 7 4.772 7 0V12.08c0-4.772-7-4.772-7 0m11-.001v6.342c0 4.772 7 4.772 7 0V12.08c0-4.772-7-4.772-7 0M8.5 2c1.626.93 2.585 2.432 3.5 4 .915-1.568 1.874-3.07 3.5-4"/>
</svg>
